public/images/icons/heart.svg

<svg xmlns="http://www.w3.org/2000/svg" viewBox="0 0 50 50">
    <path d="M 15 7 C 7.832031 7 2 12.832031 2 20 C 2 34.761719 18.695313 42.046875 24.375 46.78125 L 25 47.3125 L 25.625 46.78125 C 31.304688 42.046875 48 34.761719 48 20 C 48 12.832031 42.167969 7 35 7 C 30.945313 7 27.382813 8.925781 25 11.84375 C 22.617188 8.925781 19.054688 7 15 7 Z M 15 9 C 18.835938 9 22.1875 10.96875 24.15625 13.9375 L 25 15.1875 L 25.84375 13.9375 C 27.8125 10.96875 31.164063 9 35 9 C 41.085938 9 46 13.914063 46 20 C 46 32.898438 31.59375 39.574219 25 44.78125 C 18.40625 39.574219 4 32.898438 4 20 C 4 13.914063 8.914063 9 15 9 Z">
    </path>
</svg>

<svg xmlns="http://www.w3.org/2000/svg" viewBox="0 0 50 50"><path d="M15 7C7.832 7 2 12.832 2 20c0 14.762 16.695 22.047 22.375 26.781l.625.532.625-.532C31.305 42.047 48 34.761 48 20c0-7.168-5.832-13-13-13-4.055 0-7.617 1.926-10 4.844C22.617 8.926 19.055 7 15 7zm0 2c3.836 0 7.188 1.969 9.156 4.938l.844 1.25.844-1.25C27.812 10.967 31.164 9 35 9c6.086 0 11 4.914 11 11 0 12.898-14.406 19.574-21 24.781C18.406 39.574 4 32.898 4 20 4 13.914 8.914 9 15 9z"/></svg>
